X: 289
T: Benim Âfet-i Cihânım
C: Dellalzâde İsmail Efendi
O: Turkey
F: http://compmusic.upf.edu/node/140
N: yegah--sarki--aksaksemai--benim_afet-i--dellalzade_haci_ismail_efendi
N: makam= yegah
N: form= sarki
N: usul= aksaksemai = 10/8
M: 10/8
L: 1/16
K: C _2/4B ^f  
Q: 1/4=150
%%MIDI tuningsystem comma53
z4 z2d4d^c =Bcd4ef  | d4 G2d2 cdc2 d2e2 {=f}efed  | 
w:  (Ah)  be *  *  nim_ â  |  fet_ i  *  *  ci hâ  | 
d4 cBA4d^c =Bcd4ef  | d4 G2d2 cdc2 d2e2 {=f}efed  | 
w:  nım_ a *  man   Be *  *  nim_ â  |  *  fet_ i  *  *  *  ci hâ  | 
d4 cBA4A2 Aed2 c2=B2  | A2G2 F2G2 F2E2 D2E2 {F}EFED  | 
w:  nim_ a *  man   (Ah)  yo lu na   |  *  *  fe dâ  *  *  bu  câ  | 
D4 e2d4A2 Aed2 c2=B2  | A2G2 F2G2 F2E2 D2E2 {F}EFED  | 
w:  nım_ a man   (Ah)  yo lu na   |  *  *  fe dâ  *  *  bu  câ  | 
D4 z2d4d^c =Bcd4ef  | d4 G2d2 cdc2 d2e2 {=f}efed  | 
w:  nım   (Ah)  di *  *  li  dost   |  *  kal bi  *  *  *  düş mâ  | 
d4 cBA4d^c =Bcd4ef  | d4 G2d2 cdc2 d2e2 {=f}efed  | 
w:  nım_ a *  man   Di *  *  li  dost   |  *  kal bi  *  *  *  düş mâ  | 
d4 cBA4A2 Aed2 c2=B2  | A2G2 F2G2 F2E2 D2E2 {F}EFED  | 
w:  nım_ a *  man   (da)   A ğam_ et  |  *  *  me  bu  *  *  ce fâ  | 
D4 e2d4A2 Aed2 c2=B2  | A2G2 F2G2 F2E2 D2E2 {F}EFED  | 
w:  yı  a man  (da)   Pa şam_ et  |  *  *  me  bu  *  *  ce fâ  | 
D6z4z4z4z2  | |


